packages/Snapp/src/ClockIcon/index.svg

<?xml version="1.0" encoding="UTF-8"?>
<svg width="24px" height="24px" viewBox="0 0 24 24" version="1.1" xmlns="http://www.w3.org/2000/svg" xmlns:xlink="http://www.w3.org/1999/xlink">
    <title>Icons/24/Clock</title>
    <g id="Icons/24/Clock" stroke="none" stroke-width="1" fill="none" fill-rule="evenodd">
        <rect id="Container" fill-opacity="0" fill="#D8D8D8" fill-rule="nonzero" x="0" y="0" width="24" height="24"></rect>
        <path d="M12,2 C17.5228475,2 22,6.4771525 22,12 C22,17.5228475 17.5228475,22 12,22 C6.4771525,22 2,17.5228475 2,12 C2,6.4771525 6.4771525,2 12,2 Z M12,4 C7.581722,4 4,7.581722 4,12 C4,16.418278 7.581722,20 12,20 C16.418278,20 20,16.418278 20,12 C20,7.581722 16.418278,4 12,4 Z M12,6 C12.5128358,6 12.9355072,6.38604019 12.9932723,6.88337887 L13,7 L13,11.676 L15.503871,13.1362211 C15.9468478,13.3946242 16.1174279,13.9410494 15.9167296,14.3997462 L15.8637789,14.503871 C15.6053758,14.9468478 15.0589506,15.1174279 14.6002538,14.9167296 L14.496129,14.8637789 L11.496129,13.1137789 C11.2230466,12.9544808 11.0434409,12.6769082 11.0068999,12.3673957 L11,12.25 L11,7 C11,6.44771525 11.4477153,6 12,6 Z" id="Combined-Shape" fill="#404040"></path>
    </g>
</svg>

<svg viewBox="0 0 24 24" xmlns="http://www.w3.org/2000/svg" fill="currentColor" focusable="false">
  <path d="M12 2c5.523 0 10 4.477 10 10s-4.477 10-10 10S2 17.523 2 12 6.477 2 12 2zm0 2a8 8 0 100 16 8 8 0 000-16zm0 2a1 1 0 01.993.883L13 7v4.676l2.504 1.46a1 1 0 01.413 1.264l-.053.104a1 1 0 01-1.264.413l-.104-.053-3-1.75a1 1 0 01-.49-.747L11 12.25V7a1 1 0 011-1z" fill="none"/>
</svg>
